icons/lines/clipboard.svg

<svg xmlns="http://www.w3.org/2000/svg" width="24" height="24" viewBox="0 0 24 24" fill="none" stroke="currentColor" stroke-width="2" stroke-linecap="round" stroke-linejoin="round" >
  <path d="M18.63 7.15002C18.67 7.76002 18.62 8.45002 18.5 9.22002L17.77 13.91C17.15 17.82 15.34 19.14 11.43 18.53L6.73999 17.79C5.38999 17.58 4.34999 17.22 3.58999 16.68C2.13999 15.67 1.71999 14.01 2.11999 11.45L2.85999 6.76002C3.47999 2.85002 5.28999 1.53002 9.19999 2.14002L13.89 2.88002C17.03 3.37002 18.5 4.65002 18.63 7.15002Z"/>
  <path d="M20.4998 13.47L18.9998 17.98C17.7498 21.74 15.7498 22.74 11.9898 21.49L7.47984 19.99C5.20984 19.24 3.94984 18.2 3.58984 16.68C4.34984 17.22 5.38984 17.58 6.73984 17.79L11.4298 18.53C15.3398 19.14 17.1498 17.82 17.7698 13.91L18.4998 9.22002C18.6198 8.45002 18.6698 7.76002 18.6298 7.15002C21.0198 8.42002 21.5398 10.34 20.4998 13.47Z"/>
  <path d="M8.24 8.98C9.20098 8.98 9.98 8.20098 9.98 7.24C9.98 6.27902 9.20098 5.5 8.24 5.5C7.27902 5.5 6.5 6.27902 6.5 7.24C6.5 8.20098 7.27902 8.98 8.24 8.98Z"/>
  </svg>

<svg xmlns="http://www.w3.org/2000/svg" width="24" height="24" viewBox="0 0 24 24" fill="none" stroke="currentColor" stroke-width="2" stroke-linecap="round" stroke-linejoin="round">
  <path d="M11.43 18.53c3.91.61 5.72-.71 6.34-4.62l.73-4.69c.12-.77.17-1.46.13-2.07 2.39 1.27 2.91 3.19 1.87 6.32L19 17.98c-1.25 3.76-3.25 4.76-7.01 3.51l-4.51-1.5c-2.27-.75-3.53-1.79-3.89-3.31.76.54 1.8.9 3.15 1.11z" />
  <path d="M17.77 13.91c-.62 3.91-2.43 5.23-6.34 4.62" />
  <path d="M6.74 17.79c-1.35-.21-2.39-.57-3.15-1.11-1.45-1.01-1.87-2.67-1.47-5.23l.74-4.69c.62-3.91 2.43-5.23 6.34-4.62l4.69.74c3.14.49 4.61 1.77 4.74 4.27.04.61-.01 1.3-.13 2.07" />
  <circle cx="8.24" cy="7.24" r="1.74" />
</svg>
